X:1
T:Come sperar poss'io
T:Antonio Morsolino
T:Source : Primo libro delle canzonette a tre voci---Venetia---R.Amadino---1594. Editor : André Vierendeels (13/08/17).
T:Notes : Original clefs : G2, G2, F3 Editorial accidentals above the staff
T:Come sperar poss'io
T:©
T:©
C:Antonio Morsolino
Z:©
%%score [ 1 2 3 ]
L:1/8
Q:1/4=120
M:4/4
K:F
V:1 treble nm="Soprano 1" snm="S 1"
V:2 treble nm="Soprano 2" snm="S 2"
V:3 bass nm="Bass" snm="B"
V:1
 z8 | z2 d2 d2 e2 | f4 _e2 d2 | c2 B2 c4 | d4 d4 | c4 c4 | B4 d4 | d8- | d4 c2 B2 | A8 | =B8 :: %11
w: |Co- me spe-|rar pos- s'i-||o, ri-|me- dio'al-|lan- guir|mi-|||o|
w: |Chi spe- gna-|rà il fuo-||co, che|m'ar- de'a|po- co'a|po-|||co.|
w: |E da qual|ma- no'a- i-||ta, spe-|ro al-|la mia|fe-||ri-|ta.|
w: |Se'a- dun- que'il|mio dol so-||lo, tra-|pas- sa'o-|gn'al- tro|do-|||lo.|
 d3 d d2 dd | d4 _e4 | d4 c4 | B8 | A4 d4 | c2 B2 A2 G2 | ^F4 d4 | g2 f2 _e2 d2 | c2 B2 A4 | %20
w: S'in pa- ro- le m'è|tol- to'il|far- ne|fe-|de, ahi-|me che'l mio do-|lor, ahi-|me che'l mio do-|lor, o- gn'al-|
w: Se ne fiam- ma ne|fuo- co'u-|scir si|ve-|de, ahi-|me che'l mio do-|lor, ahi-|me che'l mio do-|lor, o- gn'al-|
w: S'on- de'av- ven- ga lo|stral nis-|sun s'av-|ve-|de, ahi-|me che'l mio do-|lor, ahi-|me che'l mio do-|lor, o- gn'al-|
w: E per non star in|grem- bo'a|tan- te|do-|glie, pren-|da la mor- te|di me|l'ul- ti- me spo-|glie, l'ul- ti-|
 A4 G4- | G4 ^F4 | G8 :| %23
w: tro'ec- ce-||de.|
w: tro'ec- ce-||de.|
w: tro'ec- ce-||de.|
w: me spo-||glie.|
V:2
 B4 B2 c2 | d2 f2 f2 e2 | d4 B4 | A2 B4 A2 | B4 F4 | G4 A4 | B8- | B4 A2 G2 | ^F4 G4- | G4 ^F4 | %10
w: Co- me spe-|rar, co- me spe-|rar pos-|s'i- * *|o, ri-|me- dio'al-|lan-||* guir|_ mi-|
w: Chi spe- gna-|rà, il fuo- *|||co, che|m'ar- de'a|po-|co'a po- *|||
w: E da qual|ma- no'a- i- *|||ta, spe-|ro al-|la|_ mia fe-|ri- *||
w: Se'a- dun- que'il|mio dol- so- *|||lo, tra-|pas- sa'o-|gn'al-|* tro do-|||
 G8 :: B3 B B2 BB | B4 c4 | B4 A4 | G8 | ^F4 z2 B2 | A2 d2 d2 ^c2 |"^-natural" d4 f4 | %18
w: o.|S'in pa- ro- le m'è|tol- to'il|far- ne|fe-|de, ahi-|me che'l mio do-|lor, ahi-|
w: co.|Se ne fiam- ma ne|fuo- co'u-|scir si|ve-|de, ahi-|me che'l mio do-|lor, ahi-|
w: ta.|S'on- de'av- ven- ga lo|stal nis-|sun s'av-|ve-|de, ahi-|me che'l mio do-|lor, ahi-|
w: lo.|E per non star in|grem- bo'a|tan- te|do-|glie, pren-|da la mor- te|di me|
 _e2 d2 c2 B2 | A2 G2 c4- | c4 B4 | A8 | G8 :| %23
w: me che'l mio do-|lor o- gn'al-|* tro'ec-|ce-|de.|
w: me che'l mio do-|lor, o- gn'al-|* tro'ec-|ce-|de.|
w: me che'l mio do-|lor, o- gn'al-|* tro'ec-|ce-|de.|
w: l'ul- ti- me spo-|glie, l'ul- ti-|* me|spo-|glie.|
V:3
 G,4 G,2 A,2 | B,2 B,,2 B,,2 C,2 | D,4 _E,4 | F,8 | B,,4 D,4 | E,4 ^F,4 | G,8- | %7
w: Co- me spe-|rar, co- me spe-|rar pos-|s'i-|o, ri-|me- dio'al|lan-|
w: Chi spe- gna-|rà, il fuo- *|||co, che|m'ar- de'a|po-|
w: E da qual|ma- no'a- i- *|||ta, spe-|ro al-|la|
w: Se'a- dun- que'il|mio dol- do- *|||lo, tra-|pas- sa'o-|gn'al-|
"^-natural" G,4 F,2 E,2 | D,4 D,4 | D,8 | G,8 :: G,3 G, G,2 G,G, | G,4 C,4 | G,4 G,4 | G,8 | %15
w: |* guir|mi-|o.|S'in pa- ro- le m'è|tol- to'il|far- ne|fe-|
w: * co'a po-|||co.|Se ne fiam- ma ne|fuo- co'u-|scir si|ve-|
w: _ mia fe-|ri- *||ta.|S'on- de'av- ven- ga lo|stral nis-|sun s'av-|ve-|
w: * tro do-|||lo.|E per non star in|grem- bo'a|tan- te|do-|
 D,4 B,4 | F,2 G,2 F,2 E,2 | D,4 B,,4 | C,8- | C,4 C,4 | D,8 | D,8 | G,,8 :| %23
w: de, ahi-|me che'l mio do-|lor, o-|gn'al-|* tro'ec-|ce-||de.|
w: de, ahi-|me che'l mio do-|lor, o-|gn'al-|* tro'ec-|ce-||de.|
w: de, ahi-|me ch'el mio do-|lor, o-|gn'al-|* tre'ec-|ce-||de.|
w: glie, pren-|da la mor- te|di me|l'ul-|* ti-|me|spo-|glie.-|

